flags/us-ga.svg

<svg width="512" height="512" viewBox="0 0 512 512" fill="none" xmlns="http://www.w3.org/2000/svg">
<path d="M512 0V171L448 256L512 341V512H0V341L341 0H512Z" fill="var(--flag-palette-bright-red, #d80027)"/>
<path d="M341 171H512V341H341L277 256L341 171Z" fill="var(--flag-palette-white, #eeeeee)"/>
<path d="M0 0H341V341H0V0Z" fill="var(--flag-palette-navy, #002266)"/>
<path d="M168 117C157.391 117 147.217 121.214 139.716 128.716C132.214 136.217 128 146.391 128 157V217H208V157C208 146.391 203.786 136.217 196.284 128.716C188.783 121.214 178.609 117 168 117Z" fill="var(--flag-palette-yellow, #ffda44)"/>
<path d="M151 89L203 52H139L191 89L171 28L151 89ZM252 151L289 203V139L252 191L313 171L252 151ZM190 252L138 289H202L150 252L170 313L190 252ZM89 191L52 139V203L89 151L28 171L89 191ZM214 99L277 109L232 64L242 127L271 70L214 99ZM242 214L232 277L277 232L214 242L271 271L242 214ZM127 242L64 232L109 277L99 214L70 271L127 242ZM99 127L109 64L64 109L127 99L70 70L99 127Z" fill="var(--flag-palette-white, #eeeeee)"/>
</svg>

<svg xmlns="http://www.w3.org/2000/svg" width="512" height="512" fill="none"><path fill="var(--flag-palette-bright-red, #d80027)" d="M512 0v171l-64 85 64 85v171H0V341L341 0z"/><path fill="var(--flag-palette-white, #eeeeee)" d="M341 171h171v170H341l-64-85z"/><path fill="var(--flag-palette-navy, #002266)" d="M0 0h341v341H0z"/><path fill="var(--flag-palette-yellow, #ffda44)" d="M168 117a40 40 0 0 0-40 40v60h80v-60a40 40 0 0 0-40-40"/><path fill="var(--flag-palette-white, #eeeeee)" d="m151 89 52-37h-64l52 37-20-61zm101 62 37 52v-64l-37 52 61-20zm-62 101-52 37h64l-52-37 20 61zM89 191l-37-52v64l37-52-61 20zm125-92 63 10-45-45 10 63 29-57zm28 115-10 63 45-45-63 10 57 29zm-115 28-63-10 45 45-10-63-29 57zM99 127l10-63-45 45 63-10-57-29z"/></svg>
